!!!COM:	la Rue, Pierre de
!!!CDT:	~1452///-1518/11/20
!!!OPR:	Missa Tous les regretz
!!!ONM:	4
!!!OTL:	Sanctus
!!!AGN:	Mass; Sanctus
!!!SCT:	Rue1031d
!!!SCA:	Rue1031d
!!!voices-OPR:	4
!!!voices:	4
**kern	**kern	**kern	**kern
*staff4	*staff3	*staff2	*staff1
*Ivox	*Ivox	*Ivox	*Ivox
*I"Bassus	*I"Tenor	*I"Contra	*I"Discantus
*I'B	*I'T	*I'C	*I'D
*>[A,B,C,D,E,C]	*>[A,B,C,D,E,C]	*>[A,B,C,D,E,C]	*>[A,B,C,D,E,C]
*>A	*>A	*>A	*>A
*clefF4	*clefGv2	*clefGv2	*clefG2
*k[]	*k[]	*k[]	*k[]
*M2/1	*M2/1	*M2/1	*M2/1
*met(C2)	*met(C2)	*met(C2)	*met(C2)
!!section: Sanctus
!!!OMD: Sanctus
=1-	=1-	=1-	=1-
0r	0r	1.A	[0a
.	.	2B\	.
=2.	=2.	=2.	=2.
0r	0r	2c\	0a]
.	.	1d	.
.	.	2c\	.
=3	=3	=3	=3
0r	0r	1.f	1.a
.	.	4e\	4g/
.	.	4d\	4f/
=4.	=4.	=4.	=4.
0r	0r	2f\	2a/
.	.	2.e\	2.g/
.	.	4d\	4f/
.	.	4c\	4e/
.	.	4B\	4d/
=5	=5	=5	=5
0r	0r	0A	1c
.	.	.	2r
.	.	.	2c/
=6.	=6.	=6.	=6.
0r	0r	0d	2.f/
.	.	.	4g/
.	.	.	2a/
.	.	.	[2b-i\
=7	=7	=7	=7
0r	0r	1c	2b-\]
.	.	.	1a
.	.	1B	.
.	.	.	2g/
=8.	=8.	=8.	=8.
0r	0r	4A/	2f/
.	.	4G/	.
.	.	4A/	4e/
.	.	4B\	4d/
.	.	1c	4e/
.	.	.	4f/
.	.	.	[2g/
=9	=9	=9	=9
0r	0r	1B	4g/]
.	.	.	4f/
.	.	.	2d/
.	.	2A/	1c
.	.	[2c\	.
=10.	=10.	=10.	=10.
0r	0r	4c\]	2r
.	.	4B\	.
.	.	2G/	2e/
.	.	1F	2f/
.	.	.	[2a/
=11	=11	=11	=11
0r	0r	2r	4a/]
.	.	.	4g/
.	.	2c\	4e/
.	.	.	4g/
.	.	2.d\	2.f/
.	.	4c\	4e/
=12.	=12.	=12.	=12.
0r	0r	2A/	2.c/
.	.	2.c\	.
.	.	.	4d/
.	.	.	4e/
.	.	4B\	4d/
.	.	4A/	[2f/
.	.	4G/	.
=13	=13	=13	=13
0r	0r	2A/	4f/]
.	.	.	4e/
.	.	2.B-i\	4d/
.	.	.	4c/
.	.	.	2d/
.	.	4A/	.
.	.	4G/	[2e/
.	.	4F/	.
=14.	=14.	=14.	=14.
0r	0r	4G/	2e/]
.	.	4F/	.
.	.	4E/	1d
.	.	4D/	.
.	.	1E	.
.	.	.	2c#i/
=15	=15	=15	=15
0r	[0A	0D	1d
.	.	.	2r
.	.	.	[2f/
=16.	=16.	=16.	=16.
0r	0A]	2r	4f/]
.	.	.	4e/
.	.	2F/	4d/
.	.	.	4c/
.	.	2D/	1d
.	.	[2F/	.
=17	=17	=17	=17
1r	0A	4F/]	1c
.	.	4E/	.
.	.	2C/	.
2r	.	2D/	2a/
[2F\	.	2d\	[2a/
=18.	=18.	=18.	=18.
4F\]	1.A	2A/	4a/]
4E\	.	.	4g/
4D\	.	2.d\	4f/
4C/	.	.	4e/
1D	.	.	1f
.	.	4c\	.
.	4G/	4A/	.
.	4F/	4B\	.
=19	=19	=19	=19
1.C	2A/	0c	0e
.	2.G/	.	.
.	4F/	.	.
2C/	4E/	.	.
.	4D/	.	.
=20.	=20.	=20.	=20.
1C	2C/	1r	1r
.	1c	.	.
1C	.	[1e	[1g
.	4B\	.	.
.	4A/	.	.
=21	=21	=21	=21
1.E	2c\	2e\]	2g/]
.	2.B\	2e\	2g/
.	.	[1e	[1g
.	4A/	.	.
2E\	4G/	.	.
.	4F/	.	.
=22.	=22.	=22.	=22.
1G	0E	2e\]	1g]
.	.	4d\	.
.	.	4c\	.
4G\	.	1B	1g
4F\	.	.	.
4E\	.	.	.
4D\	.	.	.
=23	=23	=23	=23
1C	2r	1c	1e
.	2E/	.	.
2D\	2F/	1r	2d/
[2C/	2E/	.	[2e/
=24.	=24.	=24.	=24.
4C/]	2F/	0r	2e/]
4BB/	.	.	.
2AA/	1A	.	4d/
.	.	.	4c/
1E	.	.	1B
.	2G#i/	.	.
=25	=25	=25	=25
0AA	0A	2r	1A
.	.	2F/	.
.	.	2E/	2r
.	.	[2F/	2A/
=26.	=26.	=26.	=26.
0r	0r	2F/]	2B/
.	.	4E/	1d
.	.	4D/	.
.	.	1E	.
.	.	.	2c/
=27	=27	=27	=27
2r	0r	2D/	2d/
2AA/	.	2A/	2c/
2BB/	.	2G/	2d/
[2D\	.	2F/	[2f/
=28.	=28.	=28.	=28.
2D\]	0r	1G	4f/]
.	.	.	4e/
2C/	.	.	2e/
2D\	.	1F	2f/
4C/	.	.	4e/
4BB/	.	.	4d/
=29	=29	=29	=29
2AA/	[0c	2r	1c
2.F\	.	2.A/	.
.	.	.	1r
4E\	.	4G/	.
2E\	.	2G/	.
=30.	=30.	=30.	=30.
2F\	1c]	2A/	0r
4E\	.	4G/	.
4D\	.	4F/	.
1C	1c	2E/	.
.	.	2A/	.
=31	=31	=31	=31
2r	[0c	2G/	2r
1F	.	2F/	2.a/
.	.	1G	.
.	.	.	4g/
2E\	.	.	2g/
=32.	=32.	=32.	=32.
2F\	0c]	1F	2a/
4E\	.	.	4g/
4D\	.	.	4f/
[1C	.	2.c\	2e/
.	.	.	[2cc\
.	.	4d\	.
=33	=33	=33	=33
2C/]	1c	2e\	4cc\]
.	.	.	4b\
2D\	.	2f\	1a
1E	1B	1e	.
.	.	.	2g#i/
=34.	=34.	=34.	=34.
2r	1A	2r	1a
2.A\	.	2.c\	.
.	[1c	.	1r
4G\	.	4B\	.
[2F\	.	[2A/	.
=35	=35	=35	=35
2F\]	0c]	2A/]	0r
2E\	.	2G/	.
2F\	.	2A/	.
2A\	.	2F/	.
=36.	=36.	=36.	=36.
2G\	[0B	2r	0r
1E	.	1G	.
2D\	.	2F/	.
=37	=37	=37	=37
2E\	0B]	2.G/	0r
2E\	.	.	.
.	.	4E/	.
1G	.	1E	.
=38.	=38.	=38.	=38.
2F\	[0A	2r	0r
1D	.	1F	.
2C/	.	2E/	.
=39	=39	=39	=39
2D\	0A_	2F/	0r
2F\	.	1D	.
1E	.	.	.
.	.	2C/	.
=40.	=40.	=40.	=40.
1D	0A]	2D/	2r
.	.	2F/	1d
1AA	.	1E	.
.	.	.	2c/
=41	=41	=41	=41
1r	0r	2D/	2d/
.	.	2d\	2f/
1AA	.	4c\	4e/
.	.	4B\	4d/
.	.	2c\	2e/
=42.	=42.	=42.	=42.
2BB/	0r	2.d\	2d/
2GG/	.	.	1g
.	.	4c\	.
2BB/	.	4B\	.
.	.	4G/	.
2C/	.	[2A/	2e/
=43	=43	=43	=43
2D\	1r	2A/]	2f/
2GG/	.	1G	1e
1AA	1A	.	.
.	.	2F#i/	4d/
.	.	.	4c/
=44.	=44.	=44.	=44.
[0GG	0d	[0G	0B
=45	=45	=45	=45
0GG]	1d	0G]	1r
.	1d	.	[1b
=46.	=46.	=46.	=46.
1r	0d	0r	2b\]
.	.	.	4a/
.	.	.	4g/
1D	.	.	2a/
.	.	.	2b\
=47	=47	=47	=47
1AA	1.c	0r	2cc\
.	.	.	4b\
.	.	.	4a/
2AA/	.	.	2cc\
[2GG/	[2d\	.	[2b\
=48.	=48.	=48.	=48.
2GG/]	4d\]	1r	2b\]
.	4c\	.	.
2AA/	2A/	.	1a
1E	1B	1G	.
.	.	.	2g/
=49	=49	=49	=49
2AA/	[0Al	2A/	2.f/
1D	.	2.F/	.
.	.	.	8e/L
.	.	.	8d/J
.	.	.	2f/
.	.	4D/	.
2C/	.	[2A/	[2e/
=50.	=50.	=50.	=50.
2D\	0A_	2A/]	2e/]
4C/	.	4G/	2.d/
4BB/	.	4F/	.
1AA	.	1E	.
.	.	.	4c#i/
.	.	.	2c#i/
=51	=51	=51	=51
0Dl	0A]	0Dl	0dl
!!LO:LB:i:g=z
=52||	=52||	=52||	=52||
*>B	*>B	*>B	*>B
*clefF4	*clefGv2	*clefGv2	*clefG2
*k[]	*k[]	*k[]	*k[]
*M2/1	*M2/1	*M2/1	*M2/1
*met(C2)	*met(C2)	*met(C2)	*met(C2)
!!section: Pleni sunt celi
!!!OMD: Pleni sunt celi
0D	0r	0d	1r
.	.	.	[1a
=53.	=53.	=53.	=53.
1F	0r	1A	1a]
2.A\	.	1c	1e
4E\	.	.	.
=54	=54	=54	=54
1E	0r	1.e	1g
[1G	.	.	[1b
.	.	2d\	.
=55.	=55.	=55.	=55.
2G\]	0r	1d	2b\]
2D\	.	.	2a/
1D	.	2r	1a
.	.	[2d\	.
=56	=56	=56	=56
2r	0r	2d\]	2r
1F	.	2c\	1a
.	.	2A/	.
2E\	.	2B\	2g/
=57.	=57.	=57.	=57.
1C	0r	2.c\	2e/
.	.	.	2f/
.	.	4d\	.
2.C/	.	2e\	[1g
.	.	[2c\	.
4D\	.	.	.
=58	=58	=58	=58
2E\	0r	2c\]	1g]
1C	.	4B\	.
.	.	4A/	.
.	.	[1G	2.g/
4BB/	.	.	.
4AA/	.	.	4a/
=59.	=59.	=59.	=59.
[0GG	0r	0G_	2b\
.	.	.	1g
.	.	.	4f/
.	.	.	4e/
=60	=60	=60	=60
1GG]	0r	1G]	2d/
.	.	.	1g
1D	.	1A	.
.	.	.	2f/
=61.	=61.	=61.	=61.
2r	0r	2G/	2e/
1D	.	1d	1f
2AA/	.	2c\	2e/
=62	=62	=62	=62
2BB/	0r	2B\	2d/
2AA/	.	1c	1e
2C/	.	.	.
2GG/	.	2B\	2d/
=63.	=63.	=63.	=63.
2AA/	0r	2A/	2c/
1GG	.	1B	1d
2AA/	.	2A/	2c/
=64	=64	=64	=64
2E\	0r	2G/	2B/
2F\	.	1A	2A/
1E	.	.	1B
.	.	2G#i/	.
=65.	=65.	=65.	=65.
2r	0r	0A	2r
2.A\	.	.	2.cc\
4G\	.	.	4b\
2F\	.	.	2a/
=66	=66	=66	=66
2E\	0r	0r	2g/
2D\	.	.	2f/
2.G\	.	.	2e/
.	.	.	2d/
4F\	.	.	.
=67.	=67.	=67.	=67.
2E\	0r	0r	2c/
2D\	.	.	1d
1E	.	.	.
.	.	.	2c#i/
=68	=68	=68	=68
1D	0r	1r	0d
2r	.	2r	.
[2D\	.	[2f\	.
=69.	=69.	=69.	=69.
4D\]	0r	4f\]	0r
4C/	.	4e\	.
2BB/	.	2d\	.
2AA/	.	2c\	.
2GG/	.	2B\	.
=70	=70	=70	=70
2C/	0r	2A/	2r
2BB/	.	1G	2.dd\
1AA	.	.	.
.	.	.	4cc\
.	.	2F#i/	2a/
=71.	=71.	=71.	=71.
0GG	0r	[0G	2b\
.	.	.	1g
.	.	.	[2g/
=72	=72	=72	=72
2r	0r	0G_	4g/]
.	.	.	4f/
2C/	.	.	2e/
2BB/	.	.	2d/
[2C/	.	.	[2e/
=73.	=73.	=73.	=73.
4C/]	0r	0G]	4e/]
4D\	.	.	4f/
2.E\	.	.	2.g/
4D\	.	.	4f/
4C/	.	.	4e/
4BB/	.	.	4d/
=74	=74	=74	=74
0AA	0r	1A	0c
.	.	2r	.
.	.	[2c\	.
=75.	=75.	=75.	=75.
2r	0r	4c\]	0r
.	.	4B\	.
2F\	.	2A/	.
2E\	.	2G/	.
[2F\	.	[2A/	.
=76	=76	=76	=76
4F\]	0r	4A/]	0r
4G\	.	4B\	.
2.A\	.	2.c\	.
4G\	.	4B\	.
4F\	.	4A/	.
4E\	.	4G/	.
=77.	=77.	=77.	=77.
2D\	0r	0F	2r
2AA/	.	.	2.cc\
2r	.	.	.
.	.	.	4b\
2F\	.	.	2a/
=78	=78	=78	=78
2E\	0r	[0c	2g/
2.F\	.	.	2.a/
4G\	.	.	4b\
[2A\	.	.	[2cc\
=79.	=79.	=79.	=79.
4A\]	0r	1c]	4cc\]
4G\	.	.	4b\
4F\	.	.	4a/
4E\	.	.	4g/
1D	.	2r	1f
.	.	[2d\	.
=80	=80	=80	=80
2r	0r	4d\]	0r
.	.	4c\	.
2G\	.	2B\	.
2F\	.	2A/	.
[2G\	.	[2B\	.
=81.	=81.	=81.	=81.
2G\]	0r	4B\]	1r
.	.	4c\	.
4F\	.	2.d\	.
4E\	.	.	.
2D\	.	.	2r
.	.	4c\	.
2GG/	.	4B\	[2dd\
.	.	4A/	.
=82	=82	=82	=82
2r	0r	1G	4dd\]
.	.	.	4cc\
2.G\	.	.	4b\
.	.	.	4a/
.	.	1d	2b\
4F\	.	.	.
4D\	.	.	[2a/
4E\	.	.	.
=83.	=83.	=83.	=83.
2F\	0r	2c\	2a/]
2G\	.	2B\	1g
1D	.	1A	.
.	.	.	2f#i/
=84	=84	=84	=84
1GG	0r	2r	0g
.	.	2G/	.
2r	.	2.G/	.
2C/	.	.	.
.	.	4A/	.
=85.	=85.	=85.	=85.
2D\	0r	2B\	1r
2E\	.	1c	.
2C/	.	.	2r
2E\	.	2c\	2e/
=86	=86	=86	=86
2D\	0r	2d\	2f/
1C	.	2e\	2g/
.	.	2c\	2e/
2C/	.	2e\	2g/
=87.	=87.	=87.	=87.
2D\	0r	2d\	2f/
2E\	.	1c	1e
2C/	.	.	.
2E\	.	2c\	2e/
=88	=88	=88	=88
2D\	0r	2d\	2f/
1C	.	2e\	2g/
.	.	2c\	2e/
2C/	.	2e\	2g/
=89.	=89.	=89.	=89.
2D\	0r	2d\	2f/
2E\	.	1c	1e
2C/	.	.	.
2E\	.	[2c\	2e/
=90	=90	=90	=90
2D\	0r	4c\]	2f/
.	.	4d\	.
2C/	.	2.e\	2g/
1E	.	.	2e/
.	.	4d\	.
.	.	4B\	2g/
.	.	4c\	.
=91.	=91.	=91.	=91.
2D\	0r	4d\	2f/
.	.	4c\	.
2C/	.	4B\	2e/
.	.	4A/	.
1BB	.	2.G#i/	1b
.	.	4F#i/	.
=92	=92	=92	=92
2.AA/	0r	[0Al	1.cc
4BB/	.	.	.
2C/	.	.	.
[2D\	.	.	[2a/
=93.	=93.	=93.	=93.
2D\]	0r	0A_	4a/]
.	.	.	4g/
2C/	.	.	4f/
.	.	.	4e/
1D	.	.	1f
=94	=94	=94	=94
0AAl	0r	0A]	0el
!!LO:LB:i:g=z
=95||	=95||	=95||	=95||
*>C	*>C	*>C	*>C
*clefF4	*clefGv2	*clefGv2	*clefG2
*k[]	*k[]	*k[]	*k[]
*M3/1	*M3/1	*M3/1	*M3/1
*met(C|3)	*met(C|3)	*met(C|3)	*met(C|3)
!!section: Osanna I
!!!OMD: Osanna I
1D	0.r	0.r	0.r
1D	.	.	.
1C	.	.	.
=96	=96	=96	=96
1.F	1A	0.r	0.r
.	1A	.	.
2D\	.	.	.
1E	1G	.	.
=97	=97	=97	=97
0AA	1.c	0.r	1a
.	.	.	1a
.	2A/	.	.
1r	1B	.	1g
=98	=98	=98	=98
0.r	0.r	1A	1.cc
.	.	1A	.
.	.	.	2a/
.	.	1G	1b
=99	=99	=99	=99
1.AA	0.r	1.c	0e
2BB/	.	2d\	.
1C	.	1e	1r
=100	=100	=100	=100
1D	0.r	1.f	1d
1BB	.	.	1d
.	.	2d\	.
1C	.	1e	1c
=101	=101	=101	=101
0FF	1A	0A	1.f
.	1A	.	.
.	.	.	2d/
1r	1G	1r	1e
=102	=102	=102	=102
0.r	0c	1A	0A
.	.	1A	.
.	1B	1G	1r
=103	=103	=103	=103
1.FF	0.r	1c	1.A
.	.	1F	.
2GG/	.	.	2B/
1AA	.	1E	1c
=104	=104	=104	=104
1BB-i	0.r	1D	0d
1GG	.	0E	.
1AA	.	.	1c
=105	=105	=105	=105
1.BB-i	0.r	1D	0d
.	.	1.d	.
2C/	.	.	.
1D	.	.	1f
.	.	2c\	.
=106	=106	=106	=106
1E	1r	1B	0g
1C	1A	1A	.
1D	1A	1d	1f
=107	=107	=107	=107
0E	1G	1B	0g
.	0c	0e	.
1r	.	.	1r
=108	=108	=108	=108
1.E	0.B	0e	1.g
2F\	.	.	2a/
1G	.	1d	1b
=109	=109	=109	=109
1A	0.r	1c	0cc
1F	.	0d	.
1G	.	.	1b
=110	=110	=110	=110
1A	1A	0c	1cc
1F	1A	.	1a
1G	1G	1B	1b
=111	=111	=111	=111
1A	0c	0A	1cc
1F	.	.	1a
1G	1B	1G	1b
=112	=112	=112	=112
1.C	0.r	0c	0e
2D\	.	.	.
1E	.	1B	1r
=113	=113	=113	=113
0AA	0.r	1.c	0.r
.	.	2d\	.
1r	.	1e	.
=114	=114	=114	=114
0.r	0.r	0A	1.e
.	.	.	2f/
.	.	1G	1g
=115	=115	=115	=115
1.AA	1A	0A	1.c
.	1A	.	.
2BB/	.	.	2d/
1C	1G	1r	1e
=116	=116	=116	=116
1FF	0c	1A	1A
1C	.	1G	1.e
1r	1c	1A	.
.	.	.	2f/
=117	=117	=117	=117
1r	1B	0E	1g
1.C	1r	.	1c
.	1r	1E	1g
2BB/	.	.	.
=118	=118	=118	=118
2AA/	0A	0F	1a
2GG/	.	.	.
0FF	.	.	0cc
.	1A	1F	.
=119	=119	=119	=119
0.GG	0G	1D	0b
.	.	1d	.
.	1G	1B	1g
=120	=120	=120	=120
0.r	0c	1c	1a
.	.	0A	1.f#i
.	1c	.	.
.	.	.	2e/
=121	=121	=121	=121
1.GG	0B	1G	0g
.	.	1r	.
2AA/	.	.	.
1BB	1r	1d	1r
=122	=122	=122	=122
1C	1A	1e	1e
1D	1A	1d	1f
1E	1G	1B	1g
=123	=123	=123	=123
0AA	0c	1c	1a
.	.	1A	1e
1r	1B	[1e	1r
=124	=124	=124	=124
1E	0.r	1e]	1g
1F	.	0d	1a
1G	.	.	1b
=125	=125	=125	=125
0A	1A	0c	0cc
.	1A	.	.
1r	1G	1d	1r
=126	=126	=126	=126
1E	0c	0e	1g
1F	.	.	1a
1G	1B	1d	1b
=127	=127	=127	=127
0A	[0.A	1c	1cc
.	.	1e	1c
1r	.	1f	1d
=128	=128	=128	=128
1C	0A]	1e	1e
1D	.	2d\	1f
.	.	2c\	.
1E	1G	1B	1g
=129	=129	=129	=129
0F	[0.Al	1.A	1c
.	.	.	1d
.	.	2B\	.
1E	.	1c	1e
=130	=130	=130	=130
0D	0.A_	1d	1.f
.	.	1D	.
.	.	.	2e/
1C	.	1E	1e
=131	=131	=131	=131
1D	0.A_	1F	0d
0AA	.	0E	.
.	.	.	1c#i
=132	=132	=132	=132
0.Dl	0.A]	0.Dl	0.dl
!!LO:LB:i:g=z
=133||	=133||	=133||	=133||
*>D	*>D	*>D	*>D
*clefF4	*clefGv2	*clefGv2	*clefG2
*k[]	*k[]	*k[]	*k[]
*M2/1	*M2/1	*M2/1	*M2/1
*met(C2)	*met(C2)	*met(C2)	*met(C2)
!!section: Benedictus
!!!OMD: Benedictus
0r	0r	1.A	0r
.	.	2G/	.
=134.	=134.	=134.	=134.
1.D	0r	2A/	0r
.	.	2D/	.
.	.	1A	.
2C/	.	.	.
=135	=135	=135	=135
2D\	0r	1B-i	0r
2GG/	.	.	.
1D	.	1A	.
=136.	=136.	=136.	=136.
1E	0r	2r	0r
.	.	2G/	.
1D	.	2A/	.
.	.	2D/	.
=137	=137	=137	=137
2r	0r	1A	0r
2C/	.	.	.
2D\	.	1B-i	.
2GG/	.	.	.
=138.	=138.	=138.	=138.
1D	0r	2A/	0r
.	.	1d	.
1E	.	.	.
.	.	2c\	.
=139	=139	=139	=139
2r	0r	1B-i	2r
1D	.	.	1f
.	.	1A	.
2C/	.	.	2e/
=140.	=140.	=140.	=140.
1BB-	0r	1r	1d
1AA	.	2r	1c
.	.	[2e\	.
=141	=141	=141	=141
2C/	0r	2e\]	1r
2D\	.	2d\	.
2.E\	.	2c\	2r
.	.	[2B\	[2g/
4F\	.	.	.
=142.	=142.	=142.	=142.
2G\	0r	4B\]	2g/]
.	.	4A/	.
2D\	.	1d	2f/
1A	.	.	1e
.	.	2c#i\	.
=143	=143	=143	=143
2r	0r	2d\	1d
1D	.	1f	.
.	.	.	1r
2C/	.	2e\	.
=144.	=144.	=144.	=144.
2D\	0r	1d	2r
1F	.	.	1a
.	.	1c	.
2E\	.	.	2g/
=145	=145	=145	=145
2D\	0r	2r	2f/
1A	.	1f	2.cc\
.	.	.	4b\
2G\	.	2e\	2g/
=146.	=146.	=146.	=146.
1F	0r	2e\	1a
.	.	2d\	.
[1E	.	2e\	[1g
.	.	4d\	.
.	.	4c\	.
=147	=147	=147	=147
1E]	0r	4B\	1g]
.	.	4A/	.
.	.	2B\	.
[1AA	.	2r	1r
.	.	2A/	.
=148.	=148.	=148.	=148.
1AA]	0r	2c\	1r
.	.	4d\	.
.	.	4e\	.
1r	.	2f\	2r
.	.	2e\	2e/
=149	=149	=149	=149
0r	0r	4e\	2g/
.	.	4d\	.
.	.	4c\	4a/
.	.	4B\	4b\
.	.	2A/	2cc\
.	.	2E/	2b\
=150.	=150.	=150.	=150.
1r	0r	2G/	4b\
.	.	.	4a/
.	.	4A/	4g/
.	.	4B\	4f/
2r	.	2c\	[1e
[2E\	.	2B\	.
=151	=151	=151	=151
4E\]	0r	4B\	1e]
4F\	.	4A/	.
2G\	.	4G/	.
.	.	4F/	.
2C/	.	[1E	2r
2AA/	.	.	2c/
=152.	=152.	=152.	=152.
2C/	0r	1E]	2e/
4D\	.	.	4f/
4E\	.	.	4g/
2F\	.	1r	2a/
2E\	.	.	2g/
=153	=153	=153	=153
4E\	0r	1r	4g/
4D\	.	.	4f/
4C/	.	.	4e/
4BB/	.	.	4d/
1AA	.	2r	1c
.	.	2A/	.
=154.	=154.	=154.	=154.
1A	0r	2c\	1r
.	.	4d\	.
.	.	4e\	.
[1A	.	2f\	2r
.	.	[2e\	[2cc\
=155	=155	=155	=155
2A\]	0r	2e\]	2cc\]
2G\	.	4d\	1b
.	.	4c\	.
1A	.	4d\	.
.	.	4c\	.
.	.	4B\	[2a/
.	.	4A/	.
=156.	=156.	=156.	=156.
1E	0r	1B	2a/]
.	.	.	2g#i/
2.AA/	.	[1A	1a
4BB/	.	.	.
=157	=157	=157	=157
2C/	0r	0A_	2r
2.D\	.	.	2.f
4E\	.	.	4e/
[2F\	.	.	2d/
=158.	=158.	=158.	=158.
2F\]	0r	0A_	2c/
4E\	.	.	2d/
4D\	.	.	.
2C/	.	.	2e/
2D\	.	.	2f/
=159	=159	=159	=159
2AA/	0r	0A_	2e/
2F\	.	.	2d/
2D\	.	.	2f/
2E\	.	.	4e/
.	.	.	4d/
=160.	=160.	=160.	=160.
1F	0r	1A]	2c/
.	.	.	2d/
2.C/	.	[1G	1e
4D\	.	.	.
=161	=161	=161	=161
1E	0r	0G_	2r
.	.	.	2.e/
2r	.	.	.
.	.	.	4f/
[2E\	.	.	[2g/
=162.	=162.	=162.	=162.
4E\]	0r	1G]	2g/]
4F\	.	.	.
1G	.	.	2e/
.	.	[1B	2d/
2E\	.	.	2g/
=163	=163	=163	=163
2D\	0r	0B_	2f/
2G\	.	.	2.g/
2E\	.	.	.
.	.	.	4a/
[2G\	.	.	2b\
=164.	=164.	=164.	=164.
4G\]	0r	1B]	2g/
4A\	.	.	.
2B\	.	.	1dd
1G	.	1d	.
.	.	.	4cc\
.	.	.	4b\
=165	=165	=165	=165
1F	0r	2r	1a
.	.	2d\	.
[1E	.	2e\	[1g
.	.	[2c\	.
=166.	=166.	=166.	=166.
1E]	0r	4c\]	1g]
.	.	4B\	.
.	.	2c\	.
2r	.	2d\	1r
2G\	.	2B\	.
=167	=167	=167	=167
2A\	0r	2c\	1r
2.F\	.	2.A/	.
.	.	.	1r
4E\	.	4G/	.
2F\	.	2A/	.
=168.	=168.	=168.	=168.
2G\	0r	2B\	2r
2E\	.	2c\	2g/
2F\	.	1A	2a/
[2D\	.	.	[2f/
=169	=169	=169	=169
4D\]	0r	2r	4f/]
4C/	.	.	4e/
2D\	.	2A/	2f/
2E\	.	2G/	2g/
2C/	.	[2A/	2e/
=170.	=170.	=170.	=170.
1D	0r	2A/]	2f/
.	.	2.F/	2.d/
1r	.	.	.
.	.	4E/	4c/
.	.	2F/	2d/
=171	=171	=171	=171
2r	0r	2G/	2e/
2G\	.	2E/	2c/
2A\	.	2F/	2d/
[2F\	.	[2D/	[2a/
=172.	=172.	=172.	=172.
4F\]	0r	2D/]	4a/]
4E\	.	.	4g/
2F\	.	1d	2a/
2G\	.	.	2b\
2E\	.	2e\	2g/
=173	=173	=173	=173
2F\	0r	2c\	2a/
2.D\	.	2d\	2.f/
.	.	2A/	.
4C/	.	.	4e/
2D\	.	2d\	2f/
=174.	=174.	=174.	=174.
2.E\	0r	2c\	2g/
.	.	1B	2.e/
4C/	.	.	.
2D\	.	.	.
.	.	.	4d/
2F\	.	[2A/	[2d/
=175	=175	=175	=175
1E	0r	2A/]	2d/]
.	.	2G/	2c#i/
1Dl	.	1Al	1dl
!!LO:LB:i:g=z
=176||	=176||	=176||	=176||
*>E	*>E	*>E	*>E
*clefF4	*clefGv2	*clefGv2	*clefG2
*k[]	*k[]	*k[]	*k[]
*M2/1	*M2/1	*M2/1	*M2/1
*met(C2)	*met(C2)	*met(C2)	*met(C2)
!!section: Osanna II
!!!OMD: Osanna II
!!LO:TX:Z=8:t=[Osanna = Kyrie II]
0AA	0A	0c	1r
.	.	.	1e
=177.	=177.	=177.	=177.
1AA	1A	1c	1e
1GG	1B	2d\	1g
.	.	2e\	.
=178	=178	=178	=178
2FF/	1A	2.f\	0a
1F	.	.	.
.	.	4e\	.
.	2A/	2c\	.
[2F\	[2A/	2d\	.
=179.	=179.	=179.	=179.
2F\]	2A/]	1D	1a
4E\	4G/	.	.
4D\	4F/	.	.
1A	[1c	2r	2a/
.	.	[2A/	[2a/
=180	=180	=180	=180
0AA	2c\]	4A/]	2a/]
.	.	4G/	.
.	2B\	2E/	4g/
.	.	.	4f/
.	1A	1F	[1cc
=181.	=181.	=181.	=181.
2r	1G	1E	2cc\]
2E\	.	.	2b\
2F\	2r	2r	1a
2D\	2d\	2F/	.
=182	=182	=182	=182
0E	2B\	2G/	1g
.	1c	2C/	.
.	.	1G	2r
.	2B\	.	2g/
=183.	=183.	=183.	=183.
2r	2c\	2r	2a/
2E\	2B\	2G/	2g/
2F\	2A/	2D/	2a/
2D\	2d\	2F/	2f/
=184	=184	=184	=184
2E\	2G/	2E/	2g/
2AA/	1c	2.A/	2e/
2BB/	.	.	1d
.	.	4F/	.
2GG/	[2B\	2G/	.
=185.	=185.	=185.	=185.
1AA	2B\]	1E	2r
.	1A	.	1cc
1E	.	2r	.
.	2G/	[2e\	[2b\
=186	=186	=186	=186
1r	1A	2e\]	2b\]
.	.	2e\	1a
1E	1B	[1e	.
.	.	.	2g#i/
=187.	=187.	=187.	=187.
1AA	1A	1e]	0a
2.AA/	1r	2.c\	.
4BB/	.	4d\	.
=188	=188	=188	=188
2C/	2r	2e\	1r
1D	1F	2f\	.
.	.	2d\	[1a
2C/	[2E/	2e\	.
=189.	=189.	=189.	=189.
1D	2E/]	2A/	1a]
.	1D	1f	.
1AA	.	.	1a
.	2C/	[2e\	.
=190	=190	=190	=190
1r	1D	2e\]	0a
.	.	1d	.
1AA	1E	.	.
.	.	2c#i\	.
=191.	=191.	=191.	=191.
1.BB-	0D	0d	0f
2AA/	.	.	.
=192	=192	=192	=192
1GG	1E	1B	1g
2FF/	1F	1A	2a/
2F\	.	.	2f/
=193.	=193.	=193.	=193.
2C/	2G/	2r	2e/
2F\	2A/	1c	2f/
2E\	2G/	.	2g/
2F\	2c\	4B\	2a/
.	.	4A/	.
=194	=194	=194	=194
2G\	2B\	2G/	2b\
1A	2A/	2F/	1cc
.	[1c	1A	.
[2F\	.	.	4b\
.	.	.	4a/
=195.	=195.	=195.	=195.
2F\]	0c_	2r	1g
2E\	.	2.c\	.
1F	.	.	2r
.	.	4B\	.
.	.	2A/	[2cc\
=196	=196	=196	=196
2r	1c]	2G/	4cc\]
.	.	.	4b\
2F\	.	2F/	2a/
2E\	1c	2G/	2g/
2F\	.	2A/	[2cc\
=197.	=197.	=197.	=197.
2E\	2r	2G/	4cc\]
.	.	.	4b\
2F\	2.c\	2F/	2a/
2E\	.	1c	2g/
.	4B\	.	.
2F\	2A/	.	[2f/
=198	=198	=198	=198
1C	1G	2.c\	2f/]
.	.	.	2e/
.	.	4B\	.
2FF/	1F	2c\	2f/
2BB-/	.	2d\	2d/
=199.	=199.	=199.	=199.
2C/	2E/	2c\	2e/
2D\	2D/	2A/	1f
1BB-i	1F	1B-	.
.	.	.	2d/
=200	=200	=200	=200
2C/	2E/	2G/	2e/
2D\	2D/	2F/	1f
1BB-i	2F/	1D	.
.	2G/	.	4e/
.	.	.	4d/
=201.	=201.	=201.	=201.
1AA	1A	1E	1c
2r	1D	2.F/	2r
[2D\	.	.	[2f/
.	.	4G/	.
=202	=202	=202	=202
2D\]	2r	2A/	2f/]
2BB-i/	2F/	2B-i\	2d/
2C/	2E/	2G/	2e/
[2D\	2D/	2F/	[2f/
=203.	=203.	=203.	=203.
2D\]	1F	2A/	2f/]
2BB-i/	.	2B-i\	2d/
2C/	2E/	2G/	2e/
2D\	[2A/	2F/	[2f/
=204	=204	=204	=204
1BB-	4A/]	1D	2f/]
.	4G/	.	.
.	2.G/	.	4e/
.	.	.	4d/
1AA	.	1A	1c
.	4E/	.	.
.	2F/	.	.
=205.	=205.	=205.	=205.
0GG	2G/	0B-i	2r
.	2D/	.	2d/
.	2.G/	.	2e/
.	.	.	[2g/
.	4F/	.	.
=206	=206	=206	=206
0AA	4E/	0A	4g/]
.	4D/	.	4f/
.	2F/	.	4e/
.	.	.	4d/
.	1E	.	2.d/
.	.	.	4c#i/
=207.	=207.	=207.	=207.
0Dl	0Dl	0Al	0dl
==	==	==	==
*-	*-	*-	*-
!!!RDF**kern: l=long note in original notation
!!!RDF**kern: i=editorial accidental
!!!ENC:	Chris Gage 06-11-2013
!!!END:	2013/08/05/
!!!EED:	Jesse Rodin
!!!EEV:	2013/08/06/
!!!ONB:	Translated from MusicXML and edited on 2013/08/06/ by Craig Sapp
!!muse2ps: T^@{OPR}^u^@{ONM}{. }@{OTL}^C^@{COM}^i2I150v85,85,85,150Q16
